components/icon/combined/Cross100.svg

<svg xmlns="http://www.w3.org/2000/svg" id="Cross100"><path d="M6.5477,5.0005l3.0832-3.083A1.0938,1.0938,0,0,0,8.084.3706L5.0007,3.4537,1.9175.3706A1.0938,1.0938,0,0,0,.3706,1.9175l3.0832,3.083L.3706,8.0835A1.0938,1.0938,0,1,0,1.9175,9.63L5.0007,6.5473,8.084,9.63A1.0938,1.0938,0,1,0,9.6309,8.0835Z" class="spectrum-UIIcon--large"/><path d="M5.2376,4,7.6943,1.5435A.8752.8752,0,1,0,6.4561.3062L4,2.7625,1.5435.3062A.8749.8749,0,0,0,.3062,1.5435L2.7625,4,.3062,6.4565A.8749.8749,0,1,0,1.5435,7.6938L4,5.2375,6.4561,7.6938A.8752.8752,0,1,0,7.6943,6.4565Z" class="spectrum-UIIcon--medium"/></svg>

<svg xmlns="http://www.w3.org/2000/svg" id="Cross100"><path d="M6.548 5L9.63 1.917A1.094 1.094 0 008.084.371L5.001 3.454 1.917.37A1.094 1.094 0 00.371 1.917L3.454 5 .37 8.085A1.094 1.094 0 101.917 9.63l3.084-3.083L8.084 9.63a1.094 1.094 0 101.547-1.546z" class="spectrum-UIIcon--large"/><path d="M5.238 4l2.456-2.457A.875.875 0 106.456.306L4 2.763 1.543.306A.875.875 0 00.306 1.544L2.763 4 .306 6.457a.875.875 0 101.238 1.237L4 5.237l2.456 2.457a.875.875 0 101.238-1.237z" class="spectrum-UIIcon--medium"/></svg>
